packages/foundations/assets/icons/functional/images/arrows/chevron_down_32.svg

<svg width="32" height="32" viewBox="0 0 32 32" fill="none" xmlns="http://www.w3.org/2000/svg">
<g clip-path="url(#clip0_77_492)">
<path fill-rule="evenodd" clip-rule="evenodd" d="M23.9995 11.0005C24.5615 11.0005 24.9995 11.4065 24.9995 12.0005C24.9995 12.2505 24.9055 12.5005 24.7185 12.7195L16.7185 20.7195C16.5204 20.8965 16.2651 20.996 15.9995 20.9995C15.7495 20.9995 15.4995 20.9065 15.2805 20.7195L7.28049 12.7195C7.10348 12.5215 7.00404 12.2661 7.00049 12.0005C7.00049 11.7505 7.09349 11.5005 7.28049 11.2815C7.47874 11.1042 7.73453 11.0047 8.00049 11.0015C8.25049 11.0015 8.50049 11.0945 8.71849 11.2815L15.9995 18.5945L23.2805 11.2815C23.4995 11.0945 23.7495 11.0005 23.9995 11.0005Z" fill="#1A1C1F"/>
</g>
<defs>
<clipPath id="clip0_77_492">
<rect width="32" height="32" fill="white"/>
</clipPath>
</defs>
</svg>

<svg xmlns="http://www.w3.org/2000/svg" width="32" height="32" fill="none"><g clip-path="url(#a)"><path fill="#1A1C1F" fill-rule="evenodd" d="M24 11c.561 0 1 .406 1 1 0 .25-.095.5-.282.72l-8 8A1.1 1.1 0 0 1 16 21c-.25 0-.5-.093-.719-.28l-8-8A1.1 1.1 0 0 1 7 12c0-.25.093-.5.28-.719a1.1 1.1 0 0 1 .72-.28c.25 0 .5.094.718.28L16 18.595l7.281-7.313c.22-.187.47-.28.72-.28" clip-rule="evenodd"/></g><defs><clipPath id="a"><path fill="#fff" d="M0 0h32v32H0z"/></clipPath></defs></svg>
